!!!OTL: 218d. Drei Geschwister.
!!!ODT: 1845
!!!ARE: Europa, Mitteleuropa, Deutschland, Barmen
!!!SCT: E0218
!!!TXL: @@DE
!!!YEM: Copyright 1995, estate of Helmut Schaffrath.
**kern	**text
*ICvox	*
*M2/4	*
*k[b-]	*
*F:	*
!LO:TX:a:t=Mäßig.	!
!LO:TX:a:t=Aus Barmen. 1845.	!
{4a	Es
=1	=1
4g	ſtarben
8f	drei
8e	Ge-
=2	=2
(8fL	-ſchwi-
8gJ)	.
8a}	-ſter
{8a	aus_dem
=3	=3
4a	Kö-
(8g	-nig
8f)	ſein
=4	=4
4g;}	Haus,
{8fL	die
8gJ	.
=5	=5
4a	er-
8g	-ſte
8a	die
=6	=6
4b-	ſtarb
4a	des
=7	=7
4g	A-
(8g	-bends
8a)	.
=8	=8
4f}	ſpat,
{8fL	die
8gJ	.
=9	=9
4a	ʒwei-
8g	-te
8a	die
=10	=10
4b-	ſtarb
4a	um
=11	=11
4g	Mit-
(8gL	-ter-
8aJ)	.
=12	=12
4f}	-nacht,
{8fL	die
8gJ	.
=13	=13
4a	drit-
8g	-te
8a	die
=14	=14
4b-	ſtarb
4a	als_der
=15	=15
4g	Tag
(8gL	an-
8aJ)	.
=16	=16
4f}	-brach.
==	==
!!!AGN: erzaehlendes Volks - Lied, Mahn -, Moral - Lied, Strafe; Geiz
!!!ONB: ESAC (Essen Associative Code) Database: ERK1
!!!AMT: simple duple
!!!AIN: vox
!!!EED: Helmut Schaffrath
!!!EEV: 1.0
!!!GTL: Gottesgerichte und Hoellenstrafen (Mahnlieder)
!!!URL-scan: https://rosdok.uni-rostock.de/mcrviewer/recordIdentifier/rosdok_ppn745146120/iview2/phys_0711.iview2?x=-401.41533699014985&y=2168.3608682397753&scale=0.48951656652201847&rotation=0&layout=singlePageLayout
!!!ENC: Anna Maria Matuszewska
!!!EEV: 2024/06/12
*-	*-
